src/assets/brand-plain-lightTheme.svg

<svg width="73" height="40" viewBox="0 0 73 40" fill="none" xmlns="http://www.w3.org/2000/svg">
<path d="M26.648 21.44C28.3013 21.44 29.5653 21.8987 30.44 22.816C31.3253 23.7333 31.768 25.0347 31.768 26.72C31.768 28.4053 31.3253 29.7067 30.44 30.624C29.5653 31.5413 28.3013 32 26.648 32H22.168V21.44H26.648ZM26.376 29.92C27.272 29.92 27.9227 29.6533 28.328 29.12C28.744 28.576 28.952 27.776 28.952 26.72C28.952 25.664 28.744 24.8693 28.328 24.336C27.9227 23.792 27.272 23.52 26.376 23.52H24.92V29.92H26.376ZM39.0284 21.28C40.095 21.28 41.0124 21.4987 41.7804 21.936C42.559 22.3627 43.1564 22.9813 43.5724 23.792C43.9884 24.6027 44.1964 25.5787 44.1964 26.72C44.1964 27.8613 43.9884 28.8373 43.5724 29.648C43.1564 30.4587 42.559 31.0827 41.7804 31.52C41.0124 31.9467 40.095 32.16 39.0284 32.16C37.951 32.16 37.023 31.9467 36.2444 31.52C35.4764 31.0827 34.8844 30.4587 34.4684 29.648C34.0524 28.8373 33.8444 27.8613 33.8444 26.72C33.8444 25.5787 34.0524 24.6027 34.4684 23.792C34.8844 22.9813 35.4764 22.3627 36.2444 21.936C37.023 21.4987 37.951 21.28 39.0284 21.28ZM39.0284 23.44C38.2604 23.44 37.6737 23.7173 37.2684 24.272C36.863 24.816 36.6604 25.632 36.6604 26.72C36.6604 27.808 36.863 28.6293 37.2684 29.184C37.6737 29.728 38.2604 30 39.0284 30C39.7857 30 40.367 29.728 40.7724 29.184C41.1777 28.6293 41.3804 27.808 41.3804 26.72C41.3804 25.632 41.1777 24.816 40.7724 24.272C40.367 23.7173 39.7857 23.44 39.0284 23.44ZM51.4653 21.28C52.5319 21.28 53.4493 21.4987 54.2173 21.936C54.9959 22.3627 55.5933 22.9813 56.0093 23.792C56.4253 24.6027 56.6333 25.5787 56.6333 26.72C56.6333 27.8613 56.4253 28.8373 56.0093 29.648C55.5933 30.4587 54.9959 31.0827 54.2173 31.52C53.4493 31.9467 52.5319 32.16 51.4653 32.16C50.3879 32.16 49.4599 31.9467 48.6813 31.52C47.9133 31.0827 47.3213 30.4587 46.9053 29.648C46.4893 28.8373 46.2813 27.8613 46.2813 26.72C46.2813 25.5787 46.4893 24.6027 46.9053 23.792C47.3213 22.9813 47.9133 22.3627 48.6813 21.936C49.4599 21.4987 50.3879 21.28 51.4653 21.28ZM51.4653 23.44C50.6973 23.44 50.1106 23.7173 49.7053 24.272C49.2999 24.816 49.0973 25.632 49.0973 26.72C49.0973 27.808 49.2999 28.6293 49.7053 29.184C50.1106 29.728 50.6973 30 51.4653 30C52.2226 30 52.8039 29.728 53.2093 29.184C53.6146 28.6293 53.8173 27.808 53.8173 26.72C53.8173 25.632 53.6146 24.816 53.2093 24.272C52.8039 23.7173 52.2226 23.44 51.4653 23.44ZM64.2061 21.44C65.4648 21.44 66.4408 21.7333 67.1341 22.32C67.8381 22.9067 68.1901 23.696 68.1901 24.688C68.1901 25.4773 68.0035 26.128 67.6301 26.64C67.2675 27.1413 66.7448 27.5093 66.0621 27.744L68.8141 32H65.7741L63.5181 28.144H61.8701V32H59.1661V21.44H64.2061ZM63.8221 26.192C64.3555 26.192 64.7555 26.0853 65.0221 25.872C65.2888 25.6587 65.4221 25.3173 65.4221 24.848C65.4221 23.9627 64.8888 23.52 63.8221 23.52H61.8701V26.192H63.8221Z" fill="#8C8CA2"/>
<path d="M12.384 32.544C11.5307 32.544 10.784 32.3627 10.144 32C9.52533 31.6587 9.216 31.0507 9.216 30.176C9.216 29.6213 9.35467 29.0027 9.632 28.32C10.016 28.7467 10.368 29.0453 10.688 29.216C11.0293 29.3867 11.392 29.472 11.776 29.472C12.8427 29.472 13.632 28.8747 14.144 27.68C14.6773 26.4853 14.944 25.1627 14.944 23.712C14.944 21.0027 13.9307 19.648 11.904 19.648C11.328 19.648 10.8373 19.68 10.432 19.744L7.808 32H3.2L7.552 11.648L12.288 11.008L10.784 18.112H10.976C11.7867 18.112 12.544 17.856 13.248 17.344C13.952 16.8107 14.5173 16.1493 14.944 15.36C15.3707 14.5493 15.584 13.7387 15.584 12.928C15.584 11.9467 15.232 11.1253 14.528 10.464C13.8453 9.80267 12.7893 9.472 11.36 9.472C10.0587 9.472 8.78933 9.77066 7.552 10.368C6.31467 10.944 5.30133 11.8187 4.512 12.992C3.744 14.1653 3.36 15.584 3.36 17.248C3.36 18.0373 3.43467 18.592 3.584 18.912C3.73333 19.2107 3.808 19.3813 3.808 19.424C2.67733 19.424 1.824 19.2 1.248 18.752C0.672 18.2827 0.384 17.5253 0.384 16.48C0.384 15.0293 0.928 13.6533 2.016 12.352C3.104 11.0507 4.544 10.0053 6.336 9.216C8.128 8.40533 10.016 8 12 8C13.4933 8 14.752 8.23466 15.776 8.704C16.8 9.17333 17.5573 9.792 18.048 10.56C18.56 11.328 18.816 12.1707 18.816 13.088C18.816 14.0693 18.5387 15.0187 17.984 15.936C17.4293 16.8533 16.64 17.6 15.616 18.176C16.896 18.4107 17.8453 19.008 18.464 19.968C19.0827 20.9067 19.392 22.0267 19.392 23.328C19.392 24.544 19.1573 25.8667 18.688 27.296C18.24 28.7253 17.4827 29.9627 16.416 31.008C15.3707 32.032 14.0267 32.544 12.384 32.544Z" fill="#4A4A68"/>
<path d="M23.5345 19.093C23.0385 19.093 22.6355 18.938 22.3255 18.628C22.0258 18.318 21.876 17.853 21.876 17.233C21.876 16.9747 21.9173 16.6388 22 16.2255L23.054 11.25H25.286L24.17 16.52C24.139 16.675 24.1235 16.8197 24.1235 16.954C24.1235 17.3777 24.2785 17.5895 24.5885 17.5895C24.8778 17.5895 25.1258 17.4707 25.3325 17.233C25.5392 16.985 25.7045 16.6492 25.8285 16.2255L26.8825 11.25H29.1145L27.9985 16.52C27.9572 16.675 27.9365 16.8403 27.9365 17.016C27.9365 17.2227 27.983 17.3725 28.076 17.4655C28.1793 17.5482 28.3447 17.5895 28.572 17.5895C28.8613 17.5895 29.1093 17.4655 29.316 17.2175C29.533 16.9695 29.7035 16.6388 29.8275 16.2255H30.4785C30.0962 17.3415 29.6208 18.101 29.0525 18.504C28.4945 18.8967 27.9313 19.093 27.363 19.093C26.9187 19.093 26.5622 18.969 26.2935 18.721C26.0352 18.473 25.8802 18.1062 25.8285 17.6205C25.4772 18.1888 25.1052 18.5763 24.7125 18.783C24.3302 18.9897 23.9375 19.093 23.5345 19.093ZM32.2127 19.093C31.7167 19.093 31.2982 19 30.9572 18.814C30.6162 18.6177 30.363 18.3697 30.1977 18.07C30.0324 17.76 29.9497 17.4397 29.9497 17.109C29.9497 16.768 30.0324 16.4735 30.1977 16.2255C30.3527 15.9672 30.5439 15.7812 30.7712 15.6675C31.1742 14.9442 31.5255 14.2157 31.8252 13.482C32.1249 12.738 32.409 11.9372 32.6777 11.0795L34.9717 10.7695C35.0234 12.0922 35.1112 13.5233 35.2352 15.063C35.2869 15.683 35.3127 16.1325 35.3127 16.4115C35.3127 16.6492 35.292 16.8455 35.2507 17.0005C35.7364 16.7215 36.1084 16.4632 36.3667 16.2255H37.0177C36.3564 16.9902 35.5659 17.636 34.6462 18.163C34.3465 18.4833 33.9745 18.721 33.5302 18.876C33.0962 19.0207 32.657 19.093 32.2127 19.093ZM31.7167 17.8685C32.099 17.8685 32.4194 17.7548 32.6777 17.5275C32.936 17.3002 33.0652 16.9333 33.0652 16.427C33.0652 16.117 33.0342 15.683 32.9722 15.125C32.8689 13.947 32.8017 13.1565 32.7707 12.7535C32.5227 13.5698 32.1042 14.5463 31.5152 15.683C31.7529 15.807 31.8717 15.9878 31.8717 16.2255C31.8717 16.4218 31.8045 16.5975 31.6702 16.7525C31.5462 16.9075 31.386 16.985 31.1897 16.985C30.9727 16.985 30.8332 16.9178 30.7712 16.7835C30.7712 17.1555 30.8435 17.4293 30.9882 17.605C31.1432 17.7807 31.386 17.8685 31.7167 17.8685ZM39.5726 10.413C39.2316 10.413 38.9423 10.2942 38.7046 10.0565C38.467 9.81883 38.3481 9.5295 38.3481 9.1885C38.3481 8.8475 38.467 8.55817 38.7046 8.3205C38.9423 8.0725 39.2316 7.9485 39.5726 7.9485C39.9136 7.9485 40.203 8.0725 40.4406 8.3205C40.6886 8.55817 40.8126 8.8475 40.8126 9.1885C40.8126 9.5295 40.6886 9.81883 40.4406 10.0565C40.203 10.2942 39.9136 10.413 39.5726 10.413ZM38.5186 19.093C38.0226 19.093 37.6196 18.938 37.3096 18.628C37.01 18.318 36.8601 17.853 36.8601 17.233C36.8601 16.9747 36.9015 16.6388 36.9841 16.2255L38.0381 11.25H40.2701L39.1541 16.52C39.1128 16.675 39.0921 16.8403 39.0921 17.016C39.0921 17.2227 39.1386 17.3725 39.2316 17.4655C39.335 17.5482 39.5003 17.5895 39.7276 17.5895C40.0273 17.5895 40.3063 17.4655 40.5646 17.2175C40.823 16.9592 41.009 16.6285 41.1226 16.2255H41.7736C41.3913 17.3415 40.9005 18.101 40.3011 18.504C39.7018 18.8967 39.1076 19.093 38.5186 19.093ZM47.332 19.093C46.7016 19.093 46.2366 18.9277 45.937 18.597C45.6476 18.256 45.503 17.8375 45.503 17.3415C45.503 17.1245 45.5288 16.8817 45.5805 16.613C45.6321 16.334 45.6838 16.0653 45.7355 15.807C45.7975 15.5487 45.8388 15.3833 45.8595 15.311C45.9421 14.9493 46.0196 14.5928 46.092 14.2415C46.1643 13.8902 46.2005 13.606 46.2005 13.389C46.2005 12.862 46.0145 12.5985 45.6425 12.5985C45.3738 12.5985 45.1361 12.7328 44.9295 13.0015C44.7228 13.2598 44.5575 13.6008 44.4335 14.0245L43.3795 19H41.1475L42.7905 11.25H45.0225L44.852 12.056C45.3686 11.4773 45.9731 11.188 46.6655 11.188C47.1925 11.188 47.611 11.3327 47.921 11.622C48.231 11.9113 48.386 12.3505 48.386 12.9395C48.386 13.2392 48.3498 13.575 48.2775 13.947C48.2051 14.3087 48.1018 14.753 47.9675 15.28C47.8848 15.6003 47.8073 15.9155 47.735 16.2255C47.673 16.5252 47.642 16.7628 47.642 16.9385C47.642 17.1452 47.6885 17.3053 47.7815 17.419C47.8745 17.5327 48.0346 17.5895 48.262 17.5895C48.572 17.5895 48.82 17.481 49.006 17.264C49.192 17.0367 49.378 16.6905 49.564 16.2255H50.215C49.8326 17.3622 49.3883 18.1268 48.882 18.5195C48.386 18.9018 47.8693 19.093 47.332 19.093ZM52.3986 19.093C51.634 19.093 51.0398 18.8967 50.6161 18.504C50.1925 18.101 49.9806 17.4758 49.9806 16.6285C49.9806 15.9155 50.1201 15.1302 50.3991 14.2725C50.6781 13.4148 51.1328 12.676 51.7631 12.056C52.3935 11.4257 53.1943 11.1105 54.1656 11.1105C55.3023 11.1105 55.8706 11.6065 55.8706 12.5985C55.8706 13.1772 55.7053 13.7093 55.3746 14.195C55.044 14.6807 54.6048 15.0733 54.0571 15.373C53.5095 15.6623 52.9256 15.8277 52.3056 15.869C52.285 16.179 52.2746 16.3857 52.2746 16.489C52.2746 16.9953 52.3625 17.3415 52.5381 17.5275C52.7138 17.7032 52.998 17.791 53.3906 17.791C53.9486 17.791 54.424 17.6618 54.8166 17.4035C55.2196 17.1452 55.6588 16.7525 56.1341 16.2255H56.6611C55.5141 18.1372 54.0933 19.093 52.3986 19.093ZM52.4296 15.125C52.812 15.1043 53.1736 14.97 53.5146 14.722C53.866 14.474 54.145 14.1588 54.3516 13.7765C54.5686 13.3942 54.6771 12.9912 54.6771 12.5675C54.6771 12.1438 54.548 11.932 54.2896 11.932C53.9176 11.932 53.5508 12.2575 53.1891 12.9085C52.8378 13.5595 52.5846 14.2983 52.4296 15.125ZM58.5179 19.093C58.0219 19.093 57.6034 19 57.2624 18.814C56.9214 18.6177 56.6682 18.3697 56.5029 18.07C56.3375 17.76 56.2549 17.4397 56.2549 17.109C56.2549 16.768 56.3375 16.4735 56.5029 16.2255C56.6579 15.9672 56.849 15.7812 57.0764 15.6675C57.4794 14.9442 57.8307 14.2157 58.1304 13.482C58.43 12.738 58.7142 11.9372 58.9829 11.0795L61.2769 10.7695C61.3285 12.0922 61.4164 13.5233 61.5404 15.063C61.592 15.683 61.6179 16.1325 61.6179 16.4115C61.6179 16.6492 61.5972 16.8455 61.5559 17.0005C62.0415 16.7215 62.4135 16.4632 62.6719 16.2255H63.3229C62.6615 16.9902 61.871 17.636 60.9514 18.163C60.6517 18.4833 60.2797 18.721 59.8354 18.876C59.4014 19.0207 58.9622 19.093 58.5179 19.093ZM58.0219 17.8685C58.4042 17.8685 58.7245 17.7548 58.9829 17.5275C59.2412 17.3002 59.3704 16.9333 59.3704 16.427C59.3704 16.117 59.3394 15.683 59.2774 15.125C59.174 13.947 59.1069 13.1565 59.0759 12.7535C58.8279 13.5698 58.4094 14.5463 57.8204 15.683C58.058 15.807 58.1769 15.9878 58.1769 16.2255C58.1769 16.4218 58.1097 16.5975 57.9754 16.7525C57.8514 16.9075 57.6912 16.985 57.4949 16.985C57.2779 16.985 57.1384 16.9178 57.0764 16.7835C57.0764 17.1555 57.1487 17.4293 57.2934 17.605C57.4484 17.7807 57.6912 17.8685 58.0219 17.8685ZM65.0563 19.093C64.5603 19.093 64.1418 19 63.8008 18.814C63.4598 18.6177 63.2067 18.3697 63.0413 18.07C62.876 17.76 62.7933 17.4397 62.7933 17.109C62.7933 16.768 62.876 16.4735 63.0413 16.2255C63.1963 15.9672 63.3875 15.7812 63.6148 15.6675C64.0178 14.9442 64.3692 14.2157 64.6688 13.482C64.9685 12.738 65.2527 11.9372 65.5213 11.0795L67.8153 10.7695C67.867 12.0922 67.9548 13.5233 68.0788 15.063C68.1305 15.683 68.1563 16.1325 68.1563 16.4115C68.1563 17.0418 67.9962 17.5585 67.6758 17.9615C67.3555 18.3645 66.9577 18.6538 66.4823 18.8295C66.0173 19.0052 65.542 19.093 65.0563 19.093ZM64.5603 17.8685C64.9427 17.8685 65.263 17.7548 65.5213 17.5275C65.7797 17.3002 65.9088 16.9333 65.9088 16.427C65.9088 16.117 65.8778 15.683 65.8158 15.125C65.7125 13.947 65.6453 13.1565 65.6143 12.7535C65.3663 13.5698 64.9478 14.5463 64.3588 15.683C64.5965 15.807 64.7153 15.9878 64.7153 16.2255C64.7153 16.4218 64.6482 16.5975 64.5138 16.7525C64.3898 16.9075 64.2297 16.985 64.0333 16.985C63.8163 16.985 63.6768 16.9178 63.6148 16.7835C63.6148 17.1555 63.6872 17.4293 63.8318 17.605C63.9868 17.7807 64.2297 17.8685 64.5603 17.8685Z" fill="#4A4A68"/>
</svg>

<svg xmlns="http://www.w3.org/2000/svg" width="73" height="40" fill="none" xmlns:v="https://vecta.io/nano"><path d="M26.648 21.44c1.653 0 2.917.459 3.792 1.376.885.917 1.328 2.219 1.328 3.904s-.443 2.987-1.328 3.904c-.875.917-2.139 1.376-3.792 1.376h-4.48V21.44h4.48zm-.272 8.48c.896 0 1.547-.267 1.952-.8.416-.544.624-1.344.624-2.4s-.208-1.851-.624-2.384c-.405-.544-1.056-.816-1.952-.816H24.92v6.4h1.456zm12.652-8.64c1.067 0 1.984.219 2.752.656.779.427 1.376 1.045 1.792 1.856s.624 1.787.624 2.928-.208 2.117-.624 2.928a4.4 4.4 0 0 1-1.792 1.872c-.768.427-1.685.64-2.752.64-1.077 0-2.005-.213-2.784-.64-.768-.437-1.36-1.061-1.776-1.872s-.624-1.787-.624-2.928.208-2.117.624-2.928 1.008-1.429 1.776-1.856c.779-.437 1.707-.656 2.784-.656zm0 2.16c-.768 0-1.355.277-1.76.832-.405.544-.608 1.36-.608 2.448s.203 1.909.608 2.464c.405.544.992.816 1.76.816.757 0 1.339-.272 1.744-.816.405-.555.608-1.376.608-2.464s-.203-1.904-.608-2.448c-.405-.555-.987-.832-1.744-.832zm12.437-2.16c1.067 0 1.984.219 2.752.656.779.427 1.376 1.045 1.792 1.856s.624 1.787.624 2.928-.208 2.117-.624 2.928a4.4 4.4 0 0 1-1.792 1.872c-.768.427-1.685.64-2.752.64-1.077 0-2.005-.213-2.784-.64-.768-.437-1.36-1.061-1.776-1.872s-.624-1.787-.624-2.928.208-2.117.624-2.928 1.008-1.429 1.776-1.856c.779-.437 1.707-.656 2.784-.656zm0 2.16c-.768 0-1.355.277-1.76.832-.405.544-.608 1.36-.608 2.448s.203 1.909.608 2.464c.405.544.992.816 1.76.816.757 0 1.339-.272 1.744-.816.405-.555.608-1.376.608-2.464s-.203-1.904-.608-2.448c-.405-.555-.987-.832-1.744-.832zm12.741-2c1.259 0 2.235.293 2.928.88.704.587 1.056 1.376 1.056 2.368 0 .789-.187 1.44-.56 1.952-.363.501-.885.869-1.568 1.104L68.814 32h-3.04l-2.256-3.856H61.87V32h-2.704V21.44h5.04zm-.384 4.752c.533 0 .933-.107 1.2-.32s.4-.555.4-1.024c0-.885-.533-1.328-1.6-1.328H61.87v2.672h1.952z" fill="#8c8ca2"/><path d="M12.384 32.544c-.853 0-1.6-.181-2.24-.544-.619-.341-.928-.949-.928-1.824 0-.555.139-1.173.416-1.856.384.427.736.725 1.056.896a2.4 2.4 0 0 0 1.088.256c1.067 0 1.856-.597 2.368-1.792.533-1.195.8-2.517.8-3.968 0-2.709-1.013-4.064-3.04-4.064a9.62 9.62 0 0 0-1.472.096L7.808 32H3.2l4.352-20.352 4.736-.64-1.504 7.104h.192c.811 0 1.568-.256 2.272-.768a6.09 6.09 0 0 0 1.696-1.984c.427-.811.64-1.621.64-2.432a3.24 3.24 0 0 0-1.056-2.464c-.683-.661-1.739-.992-3.168-.992-1.301 0-2.571.299-3.808.896-1.237.576-2.251 1.451-3.04 2.624-.768 1.173-1.152 2.592-1.152 4.256 0 .789.075 1.344.224 1.664l.224.512c-1.131 0-1.984-.224-2.56-.672-.576-.469-.864-1.227-.864-2.272 0-1.451.544-2.827 1.632-4.128s2.528-2.347 4.32-3.136A13.58 13.58 0 0 1 12 8c1.493 0 2.752.235 3.776.704s1.781 1.088 2.272 1.856c.512.768.768 1.611.768 2.528 0 .981-.277 1.931-.832 2.848s-1.344 1.664-2.368 2.24c1.28.235 2.229.832 2.848 1.792.619.939.928 2.059.928 3.36 0 1.216-.235 2.539-.704 3.968-.448 1.429-1.205 2.667-2.272 3.712-1.045 1.024-2.389 1.536-4.032 1.536zm11.151-13.451c-.496 0-.899-.155-1.209-.465-.3-.31-.45-.775-.45-1.395A5.36 5.36 0 0 1 22 16.225l1.054-4.975h2.232l-1.116 5.27a2.22 2.22 0 0 0-.047.434c0 .424.155.636.465.636.289 0 .537-.119.744-.357.207-.248.372-.584.496-1.008l1.054-4.975h2.232l-1.116 5.27a1.92 1.92 0 0 0-.062.496c0 .207.047.357.14.45.103.083.269.124.496.124.289 0 .537-.124.744-.372.217-.248.387-.579.512-.992h.651c-.382 1.116-.858 1.875-1.426 2.279-.558.393-1.121.589-1.689.589-.444 0-.801-.124-1.069-.372-.258-.248-.413-.615-.465-1.101-.351.568-.723.956-1.116 1.163-.382.207-.775.31-1.178.31zm8.678 0c-.496 0-.914-.093-1.255-.279-.341-.196-.594-.444-.759-.744a2.02 2.02 0 0 1-.248-.961 1.56 1.56 0 0 1 .248-.884c.155-.258.346-.444.573-.558a20.13 20.13 0 0 0 1.054-2.186l.853-2.402 2.294-.31.264 4.294.078 1.348a2.35 2.35 0 0 1-.062.589c.486-.279.858-.537 1.116-.775h.651c-.661.765-1.452 1.41-2.371 1.938a2.74 2.74 0 0 1-1.116.713 4.14 4.14 0 0 1-1.318.217zm-.496-1.224c.382 0 .703-.114.961-.341s.387-.594.387-1.101c0-.31-.031-.744-.093-1.302l-.202-2.371c-.248.816-.666 1.793-1.255 2.929.238.124.357.305.357.543 0 .196-.067.372-.201.527-.124.155-.284.232-.481.232-.217 0-.356-.067-.418-.201 0 .372.072.646.217.822.155.176.398.264.729.264zm7.856-7.456a1.18 1.18 0 0 1-.868-.357 1.18 1.18 0 0 1-.356-.868 1.18 1.18 0 0 1 .356-.868c.238-.248.527-.372.868-.372s.63.124.868.372c.248.238.372.527.372.868s-.124.63-.372.868a1.18 1.18 0 0 1-.868.357zm-1.054 8.68c-.496 0-.899-.155-1.209-.465-.3-.31-.45-.775-.45-1.395a5.38 5.38 0 0 1 .124-1.008l1.054-4.975h2.232l-1.116 5.27a1.92 1.92 0 0 0-.062.496c0 .207.046.357.139.45.103.083.269.124.496.124.3 0 .579-.124.837-.372a2.23 2.23 0 0 0 .558-.992h.651c-.382 1.116-.873 1.875-1.473 2.279-.599.393-1.194.589-1.782.589zm8.813 0c-.63 0-1.095-.165-1.395-.496-.289-.341-.434-.76-.434-1.256a3.89 3.89 0 0 1 .078-.729l.155-.806.124-.496.233-1.069c.072-.351.108-.636.108-.853 0-.527-.186-.79-.558-.79-.269 0-.506.134-.713.403-.207.258-.372.599-.496 1.023L43.38 19h-2.232l1.643-7.75h2.232l-.171.806c.517-.579 1.121-.868 1.814-.868.527 0 .945.145 1.255.434s.465.729.465 1.318a5.33 5.33 0 0 1-.108 1.007l-.31 1.333-.233.946a3.73 3.73 0 0 0-.093.713c0 .207.046.367.139.48s.253.171.48.171a.93.93 0 0 0 .744-.326c.186-.227.372-.573.558-1.038h.651c-.382 1.137-.827 1.901-1.333 2.294-.496.382-1.013.573-1.55.573zm5.067 0c-.765 0-1.359-.196-1.782-.589-.424-.403-.636-1.028-.636-1.876 0-.713.139-1.498.418-2.356a5.41 5.41 0 0 1 1.364-2.217c.63-.63 1.431-.945 2.402-.945 1.137 0 1.705.496 1.705 1.488 0 .579-.165 1.111-.496 1.597s-.77.878-1.318 1.178c-.548.289-1.131.455-1.751.496l-.031.62c0 .506.088.852.264 1.038.176.176.46.264.852.264.558 0 1.033-.129 1.426-.387.403-.258.842-.651 1.317-1.178h.527c-1.147 1.912-2.568 2.867-4.262 2.867zm.031-3.968c.382-.021.744-.155 1.085-.403a2.73 2.73 0 0 0 .837-.945 2.41 2.41 0 0 0 .326-1.209c0-.424-.129-.636-.388-.636-.372 0-.739.325-1.1.976-.351.651-.605 1.39-.76 2.217zm6.088 3.968c-.496 0-.914-.093-1.255-.279-.341-.196-.594-.444-.76-.744a2.02 2.02 0 0 1-.248-.961 1.56 1.56 0 0 1 .248-.884c.155-.258.346-.444.574-.558a20.13 20.13 0 0 0 1.054-2.186l.852-2.402 2.294-.31.264 4.294.078 1.348a2.35 2.35 0 0 1-.062.589c.486-.279.858-.537 1.116-.775h.651a9.06 9.06 0 0 1-2.371 1.938 2.74 2.74 0 0 1-1.116.713 4.14 4.14 0 0 1-1.318.217zm-.496-1.224c.382 0 .703-.114.961-.341s.387-.594.387-1.101c0-.31-.031-.744-.093-1.302l-.202-2.371c-.248.816-.666 1.793-1.255 2.929.238.124.357.305.357.543a.78.78 0 0 1-.202.527c-.124.155-.284.232-.48.232-.217 0-.357-.067-.419-.201 0 .372.072.646.217.822.155.176.398.264.729.264zm7.034 1.224c-.496 0-.914-.093-1.255-.279-.341-.196-.594-.444-.76-.744a2.02 2.02 0 0 1-.248-.961 1.56 1.56 0 0 1 .248-.884c.155-.258.346-.444.574-.558a20.11 20.11 0 0 0 1.054-2.186l.852-2.402 2.294-.31.264 4.294.078 1.348c0 .63-.16 1.147-.481 1.55a2.69 2.69 0 0 1-1.194.868c-.465.176-.94.264-1.426.264zm-.496-1.224c.382 0 .703-.114.961-.341s.388-.594.388-1.101c0-.31-.031-.744-.093-1.302l-.201-2.371c-.248.816-.666 1.793-1.255 2.929.238.124.356.305.356.543 0 .196-.067.372-.201.527-.124.155-.284.232-.481.232-.217 0-.356-.067-.418-.201 0 .372.072.646.217.822.155.176.398.264.728.264z" fill="#4a4a68"/></svg>
